X:102
T:Fiddlidee. JJo6.108
B:J.Johnson Choice Collection Vol 6, 1751
Z:vmp.Ruairidh Greig 2015 www.village-music-project.org.uk
M:C|
L:1/8
Q:1/2=80
K:G
GBdB ee2g|dBGB A/A/AA2|GBdBe2ef|ga"tr"ge dB3:|
|:gage dedB|gage agab|gaeg dega|begd B/B/BB2:|

